X:1
T:Rondo.
T:Rondo.
T:Ludwig Van Beethoven
C:Ludwig Van Beethoven
%%score ( 1 2 ) { ( 3 5 ) | ( 4 6 ) }
L:1/8
Q:1/4=130
M:6/8
K:D
V:1 treble nm="Violino principale."
V:2 treble 
V:3 treble nm="Pianoforte."
V:5 treble 
V:4 bass 
V:6 bass 
V:1
!p! .D | (A,2 D) (FA).D | (A,2 D) (FA)G | (E2 F) (D2 E) | .C.C(TD E) z .D | (A,2 D) (FA).D | %6
 (A,2 D) (FA)G | (E2 F) (D2 E) | (B,E).C D z A, | (E2 TF GE) z | z2 z z2 .d' | a2 .d' (f'a').d' | %12
 a2 .d' (f'a')g' | (e'2 f') (d'2 e') | .c'.c'(Td' e') z .d' | a2 .d' (f'a').d' | a2 .d' (f'a')g' | %17
 (e'2 f') (d'2 e') | (be').c' d'2 z | z6 | z2 z !fermata!z2 z | z6 | z6 | z6 | z6 | z6 | z6 | z6 | %28
 z6 | z6 | z6 | z6 | z6 | z6 | z6 | z6 | z6 | z6 | z6 | z6 | z6 | z6 | z6 | z6 | z6 | z2 a d2 a | %46
{/a} a'6- | a'3 g'f'e' | d'e'f' g'e'f' | e'/A/B/c/d/e/ f/^g/a/b/c'/d'/ | e'6- | %51
 e'3 d'/e/c'/e/b/e/ | a/e/b/e/c'/e/ d'/e/b/e/c'/e/ | b2 z z2 ^g/e/ | a/e/b/e/c'/e/ d'/e/b/e/c'/e/ | %55
 b2 z z2 ^g/e/ | a/e/b/e/c'/e/ d'/e/b/e/c'/e/ | b/e/^d/e/^g/b/ e'/e/d/e/g/b/ | %58
 e'/b/^g/e/B/^G/!f! E/F/E/D/C/B,/ | A,2 z4 | z2 z z .[Ac'].[fa] | ([df]2 [Bd] [^GB]2 [Ac]) | %62
 (([^GB]3 [Ee]2)) z | z6 | z2 z z .[A=c'].[fa] | (f3 ^g3) | a3- a .[A=c'].[fa] | (f3 ^g3) | %68
 [^ca]/A/B/A/[ca]/A/ [db]/A/[ec']/A/[fd']/A/ | [=ge']/A/[fd']/A/[ec']/A/ [db]/A/[ca]/A/[B^g]/A/ | %70
 [ca]/A/B/A/[ca]/A/ [db]/A/[ec']/A/[fd']/A/ | [ge']/A/[fd']/A/[ec']/A/ [db]/A/[ca]/A/[B^g]/A/ | %72
 [ca]/A/B/A/[ca]/A/ [db]/A/[ca]/A/[B^g]/A/ | [ca]/A/x/A/[ca]/A/ ([d_b]/_B/)([db]/B/)([db]/B/) | %74
 ([d_b]/_B/)([db]/B/)([db]/B/) ([db]/B/)([db]/B/)([db]/B/) | %75
!f! _b/_g/_e/g/b/g/!p! ^a/!open!=e/^c/e/a/e/ | =b/d/=B/d/b/d/ ^g/d/B/d/g/d/ | %77
"_cresc." [ca]/A/x/A/[ca]/A/ _B/_b/d/b/B/b/ | d/_b/_B/b/d/b/ B/b/d/b/B/b/ | %79
!f! _b/_g/_e/g/b/g/!p! ^a/^f/^c/f/a/f/ | =b/B/d/f/b/a/ ^g/B/d/e/g/e/ | %81
 e'/c'/a/c'/a/e/ a/e/c/e/c/A/ | e/c/A/c/A/E/ A/E/C/E/C/A,/ | d/B/^G/B/G/E/ G/E/D/E/D/B,/ | %84
 d/B/^G/B/G/E/ G/E/D/E/D/B,/ |!f! e'/c'/a/c'/a/e/ a/e/c/e/c/A/ |!p! =g/e/c/e/c/=G/ c/G/E/G/E/C/ | %87
!f! E/C/G,/G/E/C/ E/C/G,/G/E/C/ |!p! E/C/G,/G/E/C/ E/C/G,/G/E/C/ | %89
 G, (^B,/C/) (^D/E/) (F/G/) (^B/c/) (^d/e/) | (g/e/).c'/.g/.e'/.c'/ g'g'g' |!>(! (g'6!>)! | %92
 !trill(!Tc'3-) !fermata!c'2[Q:1/4=110] (.e'.d')!fermata!c'[Q:1/4=130] .D | (A,2 D) (FA).D | %94
 (A,2 D) (FA)G | (E2 F) (D2 E) | .C.C(TD E) z .D | (A,2 D) (FA).D | (A,2 D) (FA)G | (E2 F) (D2 E) | %100
 (B,E).C D z A, | (E2 TF GE) z | z2 z z2 .d' | a2 .d' (f'a').d' | a2 .d' (f'a')g' | %105
 (e'2 f') (d'2 e') | .c'.c'(Td' e') z .d' | a2 .d' (f'a').d' | a2 .d' (f'a')g' | %109
 (e'2 f') (d'2 e') | (be').c' d'2 z | z6 | z2 z !fermata!z2 z | z6 | z6 | z6 | z6 | z6 | z6 | z6 | %120
 z6 | z6 | z2 z z2!f! a | d2 ^f (ad').d |"_dim." (ad').d (ad').d |!p! (ad'd) (ad'd) | %126
 (ad'd) d'd'd' | (d'_bg afd) | g3- (ga_b) | (=c'd'_e' =f'g'e') | (d'3 _b)d'd' | (d'_bg afd) | %132
 g3- (ga_b) | a^ga =e=g=f | (d/^c/d/e/^f/g/ a/_b/=c'/a/b/c'/) | %135
 (d'/^c'/d'/_b/g/b/ a/^g/a/^f/d/f/) | (=g/d/_B/G/D/_B,/) G,2 z | (g/_e/=c/G/_E/=C/) G,2 z | %138
 ((g/d/)._B/.G/.D/._B,/ (D/G/).B/.d/.g/._b/) | (d'/^c'/d'/_b/g/b/ a/^g/a/^f/d/f/) | %140
 g/d/_B/G/D/_B,/ G,/D/^C/D/B,/G,/ | A,/(A/d/=f/^g/a/) (g/a/g/a/g/a/) | d2 z z2 (=f | %143
 (d'3){_e'd'=c'd'} (=f').e').d' |!<(! (=c'3-!<)!!>(! c'2!>)! d') | (_e'3{=f'e'd'e'} (g')f').e' | %146
!<(! d'3-!<)!!>(! d'2!>)! d | (d'_bg a^fd) | (ga_b =c'd'_e') | (d'^c'd' a=c'_b) | g2 z4 | %151
 (d/_B/=F/B/d/B/ =f/d/_e/=c/d/B/) |!<(! (=c/A/=F/A/c/A/!mp!!>(! F/_A/!<)!c/A/d/=B/)!>)! | %153
!p! (_e/=c/G/c/e/c/ g/e/=f/d/e/c/) |!<(! d/G/A/_B/=c/d/!<)!!mp!!>(! =e/^f/g/a/_b/=c'/!>)! | %155
!p! (d'/^c'/d'/_b/g/b/ a/^g/a/^f/d/f/) | (g_b/a/=c'/b/ d'/c'/_e'/d'/=f'/e'/) | %157
 (d'/d/^c'/d/d'/d/ =c'/d/a/d/_b/d/) | g2 (g"_dim." ^f/g/f/g/a/g/) | z2 (g f/g/f/g/a/g/) | %160
 z2 (g f/g/f/g/a/g/) |!pp! z2!<(! (g f/g/f/g/a/g/)!<)! |!mp! (=f/e/d/^c/d/e/ f/g/_b/a/g/f/) | %163
 e(A/^G/A/=B/ c/A/d/A/e/A/) | (=f/e/d/c/d/e/ f/g/_b/a/g/f/) | (e/a/^g/a/=g/a/ =f/a/d'/a/f/d/) | %166
 (e/a/^g/a/=g/a/ =f/a/d'/a/f/d/) | e2 z4 |"_cresc." A,/A/^G/A/C/c/ E/e/A/a/!mf! z | z6 | %170
 =B,/=B/^A/B/D/d/ G/g/=B/=b/ z | z6 |!ff! (A,/A/)^G/A/(^C/^c/) (E/e/)(=G/=g/)(A/a/) | %173
 (c/c'/)(e/e'/)(g/g'/) (g/g'/)(g/g'/)!p! .D | (A,2 D) (FA).D | (A,2 D) (FA)G | (E2 F) (D2 E) | %177
 .C.C(TD E) z .D | (A,2 D) (FA).D | (A,2 D) (FA)G | (E2 F) (D2 E) | (B,E).C D z A, | (E2 TF GE) z | %183
 z2 z z2 .d' | a2 .d' (f'a').d' | a2 .d' (f'a')g' | (e'2 f') (d'2 e') | .c'.c'(Td' e') z .d' | %188
 a2 .d' (f'a').d' | a2 .d' (f'a')g' | (e'2 f') (d'2 e') | (be').c' d'2 z | z6 | %193
 z2 z !fermata!z2 z | z6 | z6 | z6 | z6 | z6 | z6 | z6 | z6 | z6 | z6 | z6 | z6 | z6 | z6 | z6 | %209
 z6 | z6 | z6 | z6 | z6 | z6 | z6 | z6 | z6 | z2"^pizz." A D2"^arco" A |{/A} a6- | a3 gfe | %221
 def gef | e2 z z2 d |{/d} d'6- | d'3 (=c'/b/d'/c'/b/a/) | (g/d/a/d/b/d/ =c'/d/a/d/b/d/) | %226
 a2 z z2 (f/d/) | (g/d/a/d/b/d/ g/a/g/f/e/d/) | c2 z z2 (c'/a/) | %229
 (d'/a/e'/a/f'/a/ g'/a/e'/a/f'/a/) | e'2 z z2 c/A/ | d/A/e/A/f/A/ g/A/e/A/f/A/ | %232
 e/a/^g/a/e/c/ A/e/c/A/E/C/ |!<(! A,/C/E/A/c/e/!<)!!f! a2 z | z6 | z2 z z .[Df].[Bd] | %236
 ([GB]2 [EG] [CE]2 [DF]) | (([CE]3 [A,A])) z z | z6 | z2 z z .[D=f].[Bd] | (B3 c3) | %241
 d3- d .[D=f].[Bd] | (B3 c3) | [Fd]/D/E/D/[Fd]/D/ [Ge]/D/[Af]/D/[Bg]/D/ | %244
 [=ca]/D/[Bg]/D/[Af]/D/ [Ge]/D/[Fd]/D/[E^c]/D/ | [Fd]/D/E/D/[Fd]/D/ [Ge]/D/[Af]/D/[Bg]/D/ | %246
 [=ca]/D/[Bg]/D/[Af]/D/ [Ge]/D/[Fd]/D/[E^c]/D/ | [Fd]/D/E/D/[Fd]/D/ [Ge]/D/[Fd]/D/[Ec]/D/ | %248
 [Fd]/D/x/D/[Fd]/D/ ([G_e]/_E/)([Ge]/E/)([Ge]/E/) | %249
 ([G_e]/_E/)([Ge]/E/)([Ge]/E/) ([Ge]/E/)([Ge]/E/)([Ge]/E/) | %250
!f! _e/_c/_A/c/e/c/!p! ^d/=A/^F/A/d/A/ | =e/=B/G/B/e/B/ c/G/E/G/c/G/ | %252
 [Fd]/D/x/D/[Fd]/D/"_cresc." _E/_e/G/e/E/e/ | G/_e/_E/e/G/e/ E/e/G/e/E/e/ | %254
!f! _e/_c/_A/c/e/c/!p! ^d/=A/^F/A/d/A/ | =e/G/E/G/e/G/ c/G/E/G/c/G/ | a/f/d/f/d/A/ d/A/F/A/F/D/ | %257
 a/f/d/f/d/A/ d/A/F/A/F/D/ | g/e/c/e/c/G/ c/G/E/G/E/C/ | g/e/c/e/c/G/ c/G/E/G/E/C/ | %260
!f! a/f/d/f/d/A/ d/A/F/A/F/D/ |!p! A/F/=C/A/F/C/ A/F/C/A/F/C/ |!f! a/f/=c/f/c/A/ c/A/F/A/F/=C/ | %263
!p! =c/A/F/A/F/=C/ c/A/F/A/F/C/ | A,/=C/E/A/^G/A/ E/A/=c/e/c/A/ | _E/A/=c/_e/c/A/ E/A/c/e/c/A/ | %266
 D/A/=c/d/c/A/ D/A/c/d/c/A/ | D/A/=c/d/c/A/ D/G/_B/d/B/G/ | D/d/d'/^c'/d'/c'/ d'/c'/d'/c'/d'/=b/ | %269
!pp! !trill(!Ta6- | !trill)!a6 |"_cresc." !trill(!Ta'6- | !trill)!a'6{^g'} |!ff! a'2 z4 | z6 | z6 | %276
 z6 | z6 | z6 | z6 |"^Cadenza."{/!fermata![DA]} !fermata![df][eg][fa] [eg][df][Ae] | %281
 [Fd][Ae][df] [Ae][df][eg] | [df][eg][fa] [eg][df][Ae] | [Fd][Ae][df] [Ae][df][eg] | %284
 [df][eg][fa] [eg][fa][gb] | [fa][gb][ec'] [dd'][Ad'][ce'] | [df'][df'][eg'] [fa'] z [EA] | %287
 [DF][DF][EG] [FA] z [A,D] | [A,E]/[A,D]/[A,E]/[A,D]/[A,E]/[Ad]/ [Ae]/[Ad]/[Ae]/[Ad]/[Ae]/[A,D]/ | %289
 [A,E]/[A,D]/[A,E]/[A,D]/[A,E]/[Ad]/ [Ae]/[Ad]/[Ae]/[Ad]/[Ae]/[Ad]/ | !trill(!Te6- | e6 |!f! e6- | %293
 e6- | e6- |"_dim." e6- | e6- |!p! e6- | e6 |[K:C]!p! =e6- | e6 |!pp! _e6- | !trill)!e6 | %303
[K:D] _e2 ._a (=c'_e')a | _e2 ._a (=c'_e').e' | (_d'2 _e') (=c'2 d') |[K:Ab] _bb"^♭"T=c' b2 _e | %307
[K:D] (=d/!pp!_e/)(=f/e/)(_a/e/) (=c'/e/)(_e'/e/)(c'/e/) | d/_e/=f/e/=a/=A/ =c'/A/_e'/A/c'/A/ | %309
 d/_e/=f/e/=a/=A/ =c'/A/_e'/A/c'/A/ | ^d/=e/=f/e/a/A/ =c'/A/=e'/A/c'/A/ | %311
 A/=c'/b/c'/=c/c'/ ^f/c'/a/c'/A/c'/ | A/=c'/b/c'/=c/c'/ f/c'/a/c'/A/c'/ | %313
 G,/_b/a/b/g/b/ g/b/a/b/g/b/ | g/a/^c'/e'/c'/a/ g/a/e/a/g/a/ | =f/a/_b/=b/=c'/^c'/ d'/a/f/d/f/a/ | %316
 d'/=b/=f/d/f/b/ (d'e'.=f') | ^f'/(D/E/F/G/A/ B/c/d/e/f/g/) | %318
 (7:6:7(a/b/c'/d'/ e'/f'/g'/) .a'.g'.f' | !trill(!Te'6- | !trill)!e'6{^d'e'} |!pp! (g'6 | e'6) | %323
 (b6 | c'6) | d'2 z z2 z | z2 z z2!p! d' | g'2 e' (c'a).a | g'2 e' (c'a).a | d'2 z z2 z | %330
 z2 z z2 d' | g'2 e' (c'a).a | g'2 e' (c'a).a |"_cresc." =c'/d'/e'/d'/c'/b/ a/b/c'/b/a/g/ | %334
 f/g/a/g/f/e/ d/e/d/=c/B/A/ | BD/G/B/d/ gG/B/d/g/ | bB/d/g/b/ d'd/g/b/d'/ | %337
 g'/f'/e'/d'/^c'/b/ a/b/c'/d'/e'/f'/ | g'/f'/e'/d'/c'/d'/ e'/f'/g'/a'/b'/c''/ |!ff! d''2 z z2 z | %340
!f! D/F/A/d/f/a/ d'/c'/d'/e'/f'/f'/ | f'2 z z2 z | D/F/B/d/f/b/ d'/c'/d'/e'/f'/f'/ | %343
 e'/g'/e'/b/g/e/ B/G,/B,/E/G/B/ | G,/C/E/G/c/e/ g/c'/e'/g'/e'/c'/ | d'2 z z2 z | %346
 D/F/A/d/f/a/ d'/c'/d'/e'/f'/f'/ | f'2 z z2 z | D/F/B/d/f/b/ d'/c'/d'/e'/f'/f'/ | %349
 e'/g'/e'/b/g/e/ B/G,/B,/E/G/B/ | G,/C/E/G/c/e/ g/c'/e'/g'/e'/c'/ | d'2 z4 | z6 | %353
!ff! _B,/D/=F/_B/d/=f/ _b/d'/=f'/d'/f'/d'/ |!p! (a/a'/g'/^f'/e'/d'/ ^c'/=b/a/g/f/e/) | d2 z4 | z6 | %357
!ff! _B,/D/=F/_B/d/=f/ _b/d'/=f'/d'/f'/d'/ |!p! (a/a'/g'/^f'/e'/d'/ ^c'/=b/a/g/f/e/) | d2 z4 | z6 | %361
 z6 | z6 | z6 | z6 | z6 | z2 z z2!pp! F | D2 .F (Ad) f | d2 .f (ad') d' | %369
 a2 .d' (f'a')!ff! !arpeggio!.[Aec'] | !arpeggio!.[Dfd']2 z z2 z |] %371
V:2
 x | x6 | x6 | x6 | x6 | x6 | x6 | x6 | x6 | x6 | x6 | x6 | x6 | x6 | x6 | x6 | x6 | x6 | x6 | x6 | %20
 x6 | x6 | x6 | x6 | x6 | x6 | x6 | x6 | x6 | x6 | x6 | x6 | x6 | x6 | x6 | x6 | x6 | x6 | x6 | %39
 x6 | x6 | x6 | x6 | x6 | x6 | x6 | x6 | x6 | x6 | x6 | x6 | x6 | x6 | x6 | x6 | x6 | x6 | x6 | %58
 x6 | x6 | x6 | x6 | x6 | x6 | x6 | (^d2 B =d2 e) | (=c3 A) x2 | (^d2 B =d2 e) | x6 | x6 | x6 | %71
 x6 | x6 | x A/ x9/2 | x6 | x6 | x6 | x A/ x9/2 | x6 | x6 | x6 | x6 | x6 | x6 | x6 | x6 | x6 | x6 | %88
 x6 | x6 | x6 | x6 | x9 | x6 | x6 | x6 | x6 | x6 | x6 | x6 | x6 | x6 | x6 | x6 | x6 | x6 | x6 | %107
 x6 | x6 | x6 | x6 | x6 | x6 | x6 | x6 | x6 | x6 | x6 | x6 | x6 | x6 | x6 | x6 | x6 | x6 | x6 | %126
 x6 | x6 | x6 | x6 | x6 | x6 | x6 | x6 | x6 | x6 | x6 | x6 | x6 | x6 | x6 | x6 | x6 | x6 | x6 | %145
 x6 | x6 | x6 | x6 | x6 | x6 | x6 | x6 | x6 | x6 | x6 | x6 | x6 | x6 | x6 | x6 | x6 | x6 | x6 | %164
 x6 | x6 | x6 | x6 | x6 | x6 | x6 | x6 | x6 | x6 | x6 | x6 | x6 | x6 | x6 | x6 | x6 | x6 | x6 | %183
 x6 | x6 | x6 | x6 | x6 | x6 | x6 | x6 | x6 | x6 | x6 | x6 | x6 | x6 | x6 | x6 | x6 | x6 | x6 | %202
 x6 | x6 | x6 | x6 | x6 | x6 | x6 | x6 | x6 | x6 | x6 | x6 | x6 | x6 | x6 | x6 | x6 | x6 | x6 | %221
 x6 | x6 | x6 | x6 | x6 | x6 | x6 | x6 | x6 | x6 | x6 | x6 | x6 | x6 | x6 | x6 | x6 | x6 | x6 | %240
 (^G2 E =G2 A) | (=F3 D) x2 | (^G2 E =G2 A) | x6 | x6 | x6 | x6 | x6 | x D/ x9/2 | x6 | x6 | x6 | %252
 x D/ x9/2 | x6 | x6 | x6 | x6 | x6 | x6 | x6 | x6 | x6 | x6 | x6 | x6 | x6 | x6 | x6 | x6 | x6 | %270
 x6 | x6 | x6 | x6 | x6 | x6 | x6 | x6 | x6 | x6 | x6 | x6 | x6 | x6 | x6 | x6 | x6 | x6 | x6 | %289
 x6 | x6 | x6 | x6 | x6 | x6 | x6 | x6 | x6 | x6 |[K:C] x6 | x6 | x6 | x6 |[K:D] x6 | x6 | x6 | %306
[K:Ab] x6 |[K:D] x6 | x6 | x6 | x6 | x6 | x6 | x6 | x6 | x6 | x6 | x6 | x6 | x6 | x6 | x6 | x6 | %323
 x6 | x6 | x6 | x6 | x6 | x6 | x6 | x6 | x6 | x6 | x6 | x6 | x6 | x6 | x6 | x6 | x6 | x6 | x6 | %342
 x6 | x6 | x6 | x6 | x6 | x6 | x6 | x6 | x6 | x6 | x6 | x6 | x6 | x6 | x6 | x6 | x6 | x6 | x6 | %361
 x6 | x6 | x6 | x6 | x6 | x6 | x6 | x6 | x6 | x6 |] %371
V:3
 z |!p! z6 | z6 | z6 | z6 | z6 | z6 | z6 | z6 | z [A,E][A,F] [A,G]2 A | [Ace]2 [df] [Aceg]2 z | %11
 z [df][df] [df]2 z | z [df][df] [df]2 z | z c'd' z bg | z ad A2 z | z [df][df] [df]2 z | %16
 z [df][df] [df]2 z | z c'd' z bg | z ea d2 A, | [A,CE]2 [A,DF] [A,EG][A,CE]A | %20
 [Ace]2 [Adf] !fermata![Aceg]2!ff! [Dd] | [A,A]2 [Dd] [Ff][Aa][Dd] | [A,A]2 [Dd] [Ff][Aa][Gg] | %23
 [Ee]2 [Ff] [Dd]2 [Ee] | [Cc][Gc][Fd] [Ee] z [Dd] | [A,A]2 [Dd] [Ff][Aa][Dd] | %26
 [A,A]2 [Dd] [Ff][Aa][Gg] | [Ee]2 [Ff] [Dd]2 [Ee] | [B,B][Ee][Cc] [Dd][Gg][Ee] | %29
 [Ff][Bb][Gg] [Aa][dd'][Bb] | [Aa][dd'][Bb] [Aa][dd'][Bb] | [dfad']3 Pg>fe | Pd>cB [Ae]2 [Ae] | %33
 [dfad']3 Pg>fe | Pd>cB [Ae]2 [Ae] | [dfad']3 Pg>fe | Pd>cB A2 A | [Dd]3 PC>B,A, | %38
 D>FA [Aa]>[Bb][cc'] | [dfd']3 PC>B,A, | D>FA [Aa]>[Bb][cc'] | .[dfd']2 .a"_dim." .[dfd']2 .a | %42
 .[dfd']2 .a .[dfd']2 .a |!p! .[dfd']2 .A .D2 .A | .D2 .A .D2 .A | D2 z4 | %46
!p! [DF][EG][FA] [EG][DF][A,E] | [F,D][A,E][DF] [A,E][DF][EG] | [F,D][A,E][DF] [EG][A,E][DF] | %49
 [A,E]2 z4 | [Ac][Bd][ce] [Bd][Ac][EB] | [CA][EB][Ac] [EB][Ac][Bd] | [CA][EB][Ac] [Bd][EB][Ac] | %53
 [EB]2 z z2 E | [CA][EB][Ac] [Bd][EB][Ac] | [EB]2 z z2 E | [CA][EB][Ac] [Bd][EB][Ac] | %57
 [B,E^GB]2 z [B,EGB]2 z | [B,E^GB]2 z z!f! .[Ee].[Cc] | ([A,CA]2 [CE]) ([B,^GB]2 [B,E]) | %60
 ([CAc]3 [A,CA]) z2 | z6 | z2 z z!f! .[Ee].[=C=c] | ([A,=CA]2 [CE]) ([B,^GB]2 [B,E]) | %64
 ([=CA=c]3 A) z2 | z2 z!p! [B,=D^G]2 z | [A,=CA]2 z z2 z | z2 z z [B,=D^G]2 | [A,^CA]2 z4 | z6 | %70
 [A,A]2 z4 | z6 | [A,A]2 z4 |"_cresc." [^CA]3 [D_B]3- | [DB]6 |!f! [_E_B]2 z!p! [ce^a]2 z | %76
 [Bdb]2 z [Bd^g]2 z |"_cresc." [^CA]3 [D_B]3- | [DB]6 |!f! [_E_B]2 z!p! [ce^a]2 z | %80
 [Bdb]2 z [Bd^g]2 z | [Aca]4 z E | E2 .A (ce) z | [Bd^g]4 z E | E2 .^G (Bd) z |!f! E3 G2 A | %86
!p! _B2 .c (eg) z |!f! [A,CG]4 z A |!p! g6 | [A,CG]2 z4 | [cg]3 [cg][cg][cg] |!pp! [cg]6- | %92
 [cg]3- [cg]2 x x x z |!p! z6 | z6 | z6 | z6 | z6 | z6 | z6 | z6 | z [A,E][A,F] [A,G]2 A | %102
 [Ace]2 [df] [Aceg]2 z | z [df][df] [df]2 z | z [df][df] [df]2 z | z c'd' z bg | z ad A2 z | %107
 z [df][df] [df]2 z | z [df][df] [df]2 z | z c'd' z bg | z ea d2 A, | %111
 [A,CE]2 [A,DF] [A,EG][A,CE]A | [Ace]2 [Adf] !fermata![Aceg]2!ff! [Dd] | [A,A]2 [Dd] [Ff][Aa][Dd] | %114
 [A,A]2 [Dd] [Ff][Aa][Gg] | [Ee]2 [Ff] [Dd]2 [Ee] | [Cc][Gc][Fd] [Ee]2 .[Dd] | %117
 [A,A]2 .[Dd] ([=F=f][Aa]).[Dd] | [_B,_B]2 .[Dd] ([=F=f][B_b]).[Bg] | %119
 [_B,_B]2 .[_E_e] ([Gg][B_b]).[Gg] | [=C=c]2 [=E=e] [Gg][=c=c'][Aa] | %121
 [=C=c]2 [=F=f] [Aa][c=c'][Aa] | [Dd]2 [F^f] [Aa][dd'] z | z!p! [^FAd][FAd] [FAd]2 z | z6 | z6 | %126
 z6 | [G,D]6 | [G,_B,D]6 | [G,=C_E]6 | [G,D]6 | [G,D]6 | [G,_B,D]6 | %133
 ([=F,A,-D]3 [E,A,^C]2 [F,A,D]) | D2 z4 |[K:bass] z [G,_B,D][G,B,D] z [F,=CD][F,CD] | %136
 z [G,_B,D][G,B,D] z [G,B,D][G,B,D] | z [G,=C_E][G,CE] z [G,CE][G,CE] | %138
 z [G,_B,D][G,B,D] z [G,B,D][G,B,D] | z [G,_B,D][G,B,D] z [F,=CD][F,CD] | %140
 z [G,_B,D][G,B,D] z [G,B,D][G,B,D] | z [=F,A,D][F,A,D] z [=E,A,^C][F,A,D] | DDD DDD | [=F,_B,D]6 | %144
 [=F,-A,=C-]3 [F,_A,C]2 [F,A,=B,D] | [G,=C_E]6 | [G,_B,D]6 | [G,D]6- | [G,_B,D]3 [G,=CG]2 [G,_EG] | %149
 [_B,D-G]3 [A,D^F]2 [B,DG] |"_cresc." ([G,_B,]3 [=F,A,=C]3) | %151
!p! [=F,_B,D][F,B,D][F,B,D] z [F,B,D][F,B,D] | %152
 z!<(! [=F,A,=C][F,A,C]!<)!!mp!!>(! [F,_A,C][F,A,C][F,A,B,D]!>)! | %153
!p! z [G,=C_E][G,CE] z [G,CE][G,CE] | z!<(! [G,_B,D][G,B,D]!<)!!mp!!>(! [G,B,D][G,B,D][G,B,D]!>)! | %155
!p! z [G,_B,D][G,B,D] z [D,=CD][D,CD] | z [G,_B,D][G,B,G] z [G,=CG][G,_EG] | %157
 z [G,_B,G][G,B,G] z ([A,=C^F][G,B,G]) |[K:treble]"_dim." [G,_B,G]6 | [A,^CG]6 | [_B,DG]6 | %161
 [A,=EG]6 | [D=F]3 ([FA][EG]).[DF] | ([CE]3 [A,C][=B,D][CE]) | ([D=F][CE][DF] [FA][EG][DF]) | %165
 [CE]3 [D=F]3 | [CE]3 [D=F]3 |"_cresc." A,2 .C (EA)!mf! z | z6 | _B,2 .D (G_B) z | z6 | %171
 =C2 .E (G=c).C |!f! [A,^CE]2 z4 | z6 |!p! z6 | z6 | z6 | z6 | z6 | z6 | z6 | z6 | %182
 z [A,E][A,F] [A,G]2 A | [Ace]2 [df] [Aceg]2 z | z [df][df] [df]2 z | z [df][df] [df]2 z | %186
 z c'd' z bg | z ad A2 z | z [df][df] [df]2 z | z [df][df] [df]2 z | z c'd' z bg | z ea d2 A, | %192
 [A,CE]2 [A,DF] [A,EG][A,CE]A | [Ace]2 [Adf] !fermata![Aceg]2!ff! [Dd] | [A,A]2 [Dd] [Ff][Aa][Dd] | %195
 [A,A]2 [Dd] [Ff][Aa][Gg] | [Ee]2 [Ff] [Dd]2 [Ee] | [Cc][Gc][Fd] [Ee] z [Dd] | %198
 [A,A]2 [Dd] [Ff][Aa][Dd] | [A,A]2 [Dd] [Ff][Aa][Gg] | [Ee]2 [Ff] [Dd]2 [Ee] | %201
 [B,B][Ee][Cc] [Dd][Gg][Ee] | [Ff][Bb][Gg] [Aa][dd'][Bb] | [Aa][dd'][Bb] [Aa][dd'][Bb] | %204
 [dfad']3 Pg>fe | Pd>cB [Ae]2 [Ae] | [dfad']3 Pg>fe | Pd>cB A2 A | [dfad']3 Pg>fe | Pd>cB A2 A | %210
 [Dd]3 PC>B,A, | D>FA [Aa]>[Bb][cc'] | [dfd']3 PC>B,A, | D>FA [Aa]>[Bb][cc'] | %214
 .[dfd']2 .a"_dim." .[dfd']2 .a | .[dfd']2 .a .[dfd']2 .a |!p! .[dfd']2 .A .D2 .A | .D2 .A .D2 .A | %218
 D2 z4 |!p! .[DF].[EG].[FA] .[EG].[DF].[A,E] | .[F,D].[A,E].[DF] .[A,E].[DF].[EG] | %221
 .[F,D].[A,E].[DF] .[EG].[A,E].[DF] |!p! ([A,CE]3 [A,=CF]3) | .[GB].[A=c].[Bd] .[Ac].[GB].[DA] | %224
 .[B,G].[DA].[GB] .[DA].[GB].[A=c] | .[B,G].[DA].[GB] .[A=c].[DA].[GB] | %226
 .[FA].[GB].[A=c] .[Bd].[GB].[Ac] | .[DGB].[FA].[GB] .[GB].[GBg].[EGe] | %228
 .[CEc].[DF].[EG] .[FA].[DF].[EGAc] | [Ad][ce][df] [eg][ce][Fdf] | [Ece][DF][EG] [FA][DF][EGAc] | %231
 [DFAd][ce][df] [eg][ce][Fdf] | [Ece]2 z [CEc]2 z | [CEAc]2 z2!f! .[Aa].[Ff] | %234
 ([Dd]2 A) ([Ee]2 A) | ([Ff]3 [Dd]) z2 | z6 | z2 z z!f! .[Aa].[=F=f] | ([Dd]2 A) ([Ee]2 A) | %239
 ([=F=f]3 [Dd]) z2 | z2 z!p! [A,EG]2 z | [A,D=F]2 z z2 z | z2 z [A,EG]2 z | [D^F]2 z4 | z2 z ef_g | %245
 [df]2 z z2 z | z2 z ef_g | f2 z ef_g |"_cresc." D3 [G,_D_E]3- | [G,DE]6 | %250
!f! [_C_E]2 z!p! [^d^f^d']2 z | [gbe']2 z [cec']2 z | [=dfa=d']3"_cresc." [G,_B,_E]3- | [G,B,E]6 | %254
!f! [_C_E]2 z!p! [^dfa^d']2 z | [ege']2 z [cegc']2 z | [=df=d']3 z z A, | A,2 .D (FA) z | %258
 z2 z z2 A, | A,2 .C (EG) z |!f! [A,DF]6 | [A,=CF]6 |!f! [A,=CF]6 | [A,=CF]6 | [A,=CE]6 | %265
 [A,=C_E]6 | [^F,A,=CD]6- | [F,A,CD]3 [G,_B,]3 | [_B,=E]3 [=B,D=F]3 | %269
!pp! .[df].[eg].[fa] .[eg].[df].[Ae] | .[Fd].[Ae].[df] .[Ae].[df].[eg] | %271
 .[df].[eg].[fa] .[eg].[df].[Ae] | .[Fd].[Ae].[df] .[Ae].[df].[eg] | %273
"_cresc." .[Adf].[Bd].[cd] .[Bd].[Ad].[Gd] | .[Fd].[Gd].[Ad] .[Gd].[Ad].[Bd] | %275
 .[fad'f'].[dbd'].[cdc'] .[Bdb].[Ada].[Gdg] | .[Fdf].[Gdg].[Ada] .[Gdg].[Ada].[Bdb] | %277
 [dfad']3 [dfad']3 | [dfad']3 [dfad']3 | [Acea]6 | z6 | z6 | z6 | z6 | z6 | z6 | z6 | z6 | z6 | %289
 z6 | z6 | z6 | z6 | z6 | z6 |"_dim." z6 | z6 |!p! z6 | z6 |[K:C] z2!p! .G (_B_d) z | %300
!p! (_B_d) z (Bd) z |!pp! ([G_B][B_d]) z ([GB][Bd]) z | ([G_B][B_d]) z ([GB][Bd]) z | %303
[K:D] z!pp! [_A=c][Ac] [Ac]2 z | z [_A=c][Ac] [Ac]2 z | z [G_B][_EG] z _A[_DB] | %306
[K:Ab] [_EG][EG][E_A] [EG]2 z |[K:D] z [_A,=C_E]!pp![A,CE] [A,CE]2 z | %308
 z [=A,=C_E][A,CE] [A,CE]2 z | z [A,=C_E][A,CE] [A,CE]2 z | z [A,=C=E][A,CE] [A,CE]2 z | %311
 z [A,=C^F][A,CF] [A,CF]2 z | z [A,=CF][A,CF] [A,CF]2 z | z [_B,DG][B,DG] [B,DG]2 z | %314
 z [A,EG][A,EG] [A,EG]2 z | z [A,D=F][A,DF] [A,DF]2 z | z [=B,D=F][B,DF] [B,DF]2 z | %317
 z [A,D^F][A,DF] [A,DF]2 z | z6 | z [A,^CEG][A,CEG] [A,CEG]2 z | z6 | z6 | z6 | z6 | %324
 z2 z z2!pp! .d | A2 .d (fa).d | A2 .d (fa) z | [A,EG]2 z [A,EG]2 z | [A,EG]2 z [A,EG]2!p! .[Dd] | %329
 [A,A]2 .[Dd] ([Ff][Aa]).[Dd] | [A,A]2 .[Dd] ([Ff][Aa])[Dd] | [A,EG]2 z [A,EG]2 z | %332
 [A,EG]2 z [A,EG]2 z |"_cresc." =C2 .F (A=c) C | =C2 .F (A=c) C | B,2 .D (GB) B, | B,2 .D (GB) B, | %337
 C2 .E (Gc) C | C2 .E (Gc) C |!ff! D2 [df] [df]2 [df] | [df]2 z z2 z | D2 [df] [df]2 [df] | %342
 [df]2 z z2 z | [DEGB]3 [DE]3 | [A,CEA]3 [CE]3 | D2 [df] [df]2 [df] | [df]2 z z2 z | %347
 D2 [df] [df]2 [df] | [df]2 z z2 z | [DEGB]3 [DE]3 | [A,CEA]3 [CE]3 |!ff! [Dd] (dF) (dG) (d | %352
 ^G) (dA) (d_B) [Dd] | [Dd]6 |!p! [D^Fd]2 z [EGc]2 z |!ff! [Dd] (dF) (dG) (d |^G) (dA) (d_B) [Dd] | %357
 [Dd]6 |!p! [D^Fd]2 z [EGc] z!ff! A | D2 .F (Ad) D | F2 .A (df) F | A2 .d fa.A | %362
"_dim." (fa).A (fa).A |!p! (fa).[A,A] ([Ff][Aa]).[A,A] | ([Ff][Aa][A,A] [Ff][Aa][A,A]) | %365
!pp! ([Dd][Ff][A,A] [Dd][Ff][A,A]) | ([Dd][Ff][A,A] [Dd][Ff][A,A]) | [Dd]2 z z2 z | z6 | %369
 z2 z z2!ff! .[cegc'] | .[dfad']2 z z2 z |] %371
V:4
 z | z D,,D,, D,,2 z | z D,,D,, D,,2 z | z CD z B,G, | z A,D, A,,2 z | z D,,D,, D,,2 z | %6
 z D,,D,, D,,2 z | z CD z B,G, | z E,A, D,2 z | z A,D, [A,,A,]2 z | z A,[D,A,] [A,,A,] z2 | z6 | %12
 z6 | z6 | z6 | z6 | z6 | z6 | z6 | z A,D, A,,2 z | z A,D, !fermata!A,,2 z | %21
 [D,F,A,][D,,D,][D,,A,,D,] [D,,D,]2 [D,,A,,D,] | [D,F,A,][D,,D,][D,,A,,D,] [D,,D,]2 z | %23
 [A,,,A,,][A,,E,][D,F,] [D,,D,][D,,D,][E,G,] | [A,,A,][A,,A,][D,,D,] [A,,,A,,] z D, | %25
 [D,F,A,][D,,D,][D,,A,,D,] [D,,D,]2 [D,,A,,D,] | [D,F,A,][D,,D,][D,,A,,D,] [D,,D,]2 z | %27
 [A,,,A,,][A,,E,][D,F,] [D,,D,][D,,D,][E,G,] | %28
 [G,,,G,,][G,,,G,,][A,,,A,,] [B,,,B,,][B,,,B,,][C,,C,] | %29
 [D,,D,][D,,D,][E,,E,] [F,,F,][F,,F,][G,,G,] | [F,,F,][F,,F,][G,,G,] [F,,F,][F,,F,][G,,G,] | %31
 .[F,,F,].[F,,F,].[F,,F,] .[G,,G,].[G,,G,].[G,,G,] | %32
 .[A,,A,].[A,,A,].[A,,A,] .[G,,G,].[G,,G,].[G,,G,] | %33
 .[F,,F,].[F,,F,].[F,,F,] .[G,,G,].[G,,G,].[G,,G,] | %34
 .[A,,A,].[A,,A,].[A,,A,] .[G,,G,].[G,,G,].[G,,G,] | %35
 .[F,,D,F,].[F,,D,F,].[F,,D,F,] .[G,,D,E,G,].[G,,D,E,G,].[G,,D,E,G,] | %36
 .[A,,D,F,A,].[A,,D,F,A,].[A,,D,F,A,] .[G,,A,,E,G,].[G,,A,,E,G,].[G,,A,,E,G,] | [D,,A,,D,]6- | %38
 [D,,A,,D,]3 [A,,,A,,]>[A,,,A,,][A,,,A,,] | [D,,A,,D,]6- | %40
 [D,,A,,D,]3 [A,,,A,,]>[A,,,A,,][A,,,A,,] | .[D,,D,]2 .[A,,A,] .[D,,D,]2 .[A,,A,] | %42
 .[D,,D,]2 .[A,,A,] .[D,,D,]2 .[A,,A,] | .[D,,D,]2 .A, .D,2 .A, | .D,2 .A, .D,2 .A, | D,2 z4 | z6 | %47
 z6 | z6 | z2 z4 | z6 | z6 | z2 z z2 A, | [^G,B,][A,C][B,D] [CE][A,C][B,D] | z2 z z2 A, | %55
 [^G,B,][A,C][B,D] [CE][A,C][B,D] | z6 | [E,,E,]2 z [E,,E,]2 z | [E,,E,]2 z z z2 | %59
 [A,,A,]3 [E,,E,]3 | [A,,,A,,]3- [A,,,A,,] z2 | z2 z z!p! .E,.A,, | E,2 z4 | %63
 [A,,E,A,]3 [E,,^G,,B,,E,]3 | [A,,,E,,A,,]3- [A,,,E,,A,,]3 | z2 z E,,.E,.E,, | [A,,,A,,]2 z z2 z | %67
 z2 z E,,.E,.E,, | [A,,,A,,]2 z4 | z6 | [A,,,A,,]2 z4 | z6 | [A,,,A,,]2 z4 | [A,,A,]3 [_A,,_A,]3 | %74
 [=F,,=F,]3 [_B,,,_B,,_B,]3 | [_E,,_G,,_E,]2 z [^F,^F]2 z | [=B,,=B,]2 z [E,E]2 z | %77
 [A,,A,]3 [_A,,_A,]3 | [=F,,=F,]3 [_B,,,_B,,_B,]3 | [_E,,_G,,_E,]2 z [^F,^F]2 z | %80
 [=B,,=B,]2 z [E,E]2 E, | E,2 .A, (CE) z | A,4 z E, | E,2 .^G, (B,D) z | E,4 z E, | %85
 A,,2 .C, (E,A,)A, | _B,2 .C (EG)_B,, | A,,2 .C, (E,G,)A, | _B,2 C EG_B,, | [A,,,A,,]2 z4 | %90
 [A,E]3 [A,E][A,E][A,E] | [A,E]6- | [A,E]3- [A,E]2 x x x z | z D,,D,, D,,2 z | z D,,D,, D,,2 z | %95
 z CD z B,G, | z A,D, A,,2 z | z D,,D,, D,,2 z | z D,,D,, D,,2 z | z CD z B,G, | z E,A, D,2 z | %101
 z A,D, [A,,A,]2 z | z A,[D,A,] [A,,A,] z2 | z6 | z6 | z6 | z6 | z6 | z6 | z6 | z6 | %111
 z A,D, A,,2 z | z A,D, !fermata!A,,2 z | [D,F,A,][D,,D,][D,,A,,D,] [D,,D,]2 [D,,A,,D,] | %114
 [D,F,A,][D,,D,][D,,A,,D,] [D,,D,]2 z | [A,,,A,,][A,,E,][D,F,] [D,,D,][D,,D,][E,G,] | %116
 [A,,A,][A,,A,][D,,D,] [A,,,A,,]2 z | z [D,,D,][D,,D,] [D,,D,]2 z | z [D,_B,][D,B,] [D,B,]2 G, | %119
 G,[_E,G,_B,][E,G,B,] [E,G,B,]2 z | z [E,G,][E,G,] [E,G,]2 [A,,A,] | %121
 [A,,A,][=F,,A,,=F,][F,,A,,F,] [F,,A,,F,]2 [A,,A,] | [D,,D,][^F,,A,,^F,][F,,A,,F,] [F,,A,,F,]2 z | %123
 z6 | z6 | z6 | z6 | [G,,,G,,]6 | [G,,,G,,]6 | [G,,,G,,]6 | [G,,,G,,]6 | [G,,,G,,]6 | [G,,,G,,]6 | %133
 [=F,,,=F,,]3 ([A,,,A,,]2 [D,,D,]) | [D,,D,]2 z z2 D, | .[G,,,G,,]2 z .[G,,,G,,]2 z | %136
 .[G,,,G,,]2 z .[G,,,G,,]2 z | .[G,,,G,,]2 z .[G,,,G,,]2 z | .[G,,,G,,]2 z .[G,,,G,,]2 z | %139
 .[G,,,G,,]2 z .[G,,,G,,]2 z | .[G,,,G,,]2 z .[G,,,G,,]2 z | [=F,,,=F,,]2 z [A,,,A,,]2 [D,,D,] | %142
 [D,,D,]2 z z2 z | [_B,,,_B,,]6 | [=F,,,=F,,]6 | [=C,,=C,]6 | [G,,,G,,]6 | [G,,,G,,]6 | %148
 [G,,,G,,]3 [_E,,_E,]2 [=C,,=C,] | [D,,D,]3- [D,,D,]2 [G,,,G,,] | ([G,,,G,,]3 [=F,,,=F,,]3) | %151
 [_B,,,_B,,]2 z .B,,2 z | .=F,,2 z z2 .F,, | .=C,2 z .C,2 z | .G,,2 z z2 .G,, | %155
 .[G,,,G,,]2 z .[G,,,G,,]2 z | .[G,,,G,,]2 z .[_E,,_E,]2 .[=C,,=C,] | %157
 .[D,,D,]2 z ([D,,D,]2 [G,,,G,,]) | [G,,,G,,]6 | [A,,,A,,]6 | [_B,,,_B,,]6 | [^C,,^C,]6 | %162
 [D,,D,]6 | [A,,,A,,]6 | [D,,D,]6 | [A,,,A,,]6 | [A,,,A,,]6 | %167
 [A,,,A,,]2 .[C,,C,] ([E,,E,][A,,A,]) z | [A,,A,]6 | [_B,,,_B,,]2 .[D,,D,] ([G,,G,][B,,_B,]) z | %170
 [=B,,=B,]6 | [=C,,=C,]2 .[E,,E,] ([G,,G,][C,=C]).C, | [^C,,^C,]2 z4 | z6 | z D,,D,, D,,2 z | %175
 z D,,D,, D,,2 z | z CD z B,G, | z A,D, A,,2 z | z D,,D,, D,,2 z | z D,,D,, D,,2 z | z CD z B,G, | %181
 z E,A, D,2 z | z A,D, [A,,A,]2 z | z A,[D,A,] [A,,A,] z2 | z6 | z6 | z6 | z6 | z6 | z6 | z6 | z6 | %192
 z A,D, A,,2 z | z A,D, !fermata!A,,2 z | [D,F,A,][D,,D,][D,,A,,D,] [D,,D,]2 [D,,A,,D,] | %195
 [D,F,A,][D,,D,][D,,A,,D,] [D,,D,]2 z | [A,,,A,,][A,,E,][D,F,] [D,,D,][D,,D,][E,G,] | %197
 [A,,A,][A,,A,][D,,D,] [A,,,A,,] z D, | [D,F,A,][D,,D,][D,,A,,D,] [D,,D,]2 [D,,A,,D,] | %199
 [D,F,A,][D,,D,][D,,A,,D,] [D,,D,]2 z | [A,,,A,,][A,,E,][D,F,] [D,,D,][D,,D,][E,G,] | %201
 [G,,,G,,][G,,,G,,][A,,,A,,] [B,,,B,,][B,,,B,,][C,,C,] | %202
 [D,,D,][D,,D,][E,,E,] [F,,F,][F,,F,][G,,G,] | [F,,F,][F,,F,][G,,G,] [F,,F,][F,,F,][G,,G,] | %204
 .[F,,F,].[F,,F,].[F,,F,] .[G,,G,].[G,,G,].[G,,G,] | %205
 .[A,,A,].[A,,A,].[A,,A,] .[G,,G,].[G,,G,].[G,,G,] | %206
 .[F,,F,].[F,,F,].[F,,F,] .[G,,G,].[G,,G,].[G,,G,] | %207
 .[A,,A,].[A,,A,].[A,,A,] .[G,,G,].[G,,G,].[G,,G,] | %208
 .[F,,D,F,].[F,,D,F,].[F,,D,F,] .[G,,D,E,G,].[G,,D,E,G,].[G,,D,E,G,] | %209
 .[A,,D,F,A,].[A,,D,F,A,].[A,,D,F,A,] .[G,,A,,E,G,].[G,,A,,E,G,].[G,,A,,E,G,] | [D,,A,,D,]6- | %211
 [D,,A,,D,]3 [A,,,A,,]>[A,,,A,,][A,,,A,,] | [D,,A,,D,]6- | %213
 [D,,A,,D,]3 [A,,,A,,]>[A,,,A,,][A,,,A,,] | .[D,,D,]2 .[A,,A,] .[D,,D,]2 .[A,,A,] | %215
 .[D,,D,]2 .[A,,A,] .[D,,D,]2 .[A,,A,] | .[D,,D,]2 .A, .D,2 .A, | .D,2 .A, .D,2 .A, | D,2 z4 | z6 | %220
 z6 | z6 | ([A,,,A,,]3 [D,,D,]3) | z6 | z6 | z2 z z2 G, | D,2 z z2 D | G,2 z z E,E, | A,2 z z2 A, | %229
 D,2 z z2 D | A,2 z z2 A, | D,2 z z2 D | A,2 z A,2 z | [A,,A,]2 z4 | (F,2 A,) (G,2 A,) | %235
 ([D,-A,]3 [D,F,]) z2 | z2 z z!p! .A,.D, | A,,2 z z .=F,.A, | =F,2 A, G,2 A, | %239
 [D,-A,]3 [D,=F,A,] z2 | z2 z A,,A,A,, | [D,,D,]2 z z2 z | z2 z A,,A,A,, | [D,,D,]6- | [D,,D,]6 | %245
 [D,,D,]6- | [D,,D,]6 | [D,,D,]6- | [D,F,]3 [_D,_B,]3 | [_B,,_B,]3 [_E,,_E,]3 | %250
 [_A,,_A,]2 z [=B,,=B,]2 z | [E,E]2 z [A,,A,]2 z | [D,A,D]3 _B,,3 | [_B,,_B,]3 [_E,,_E,]3 | %254
 [_A,,_A,]2 z [B,,B,]2 z | [E,E]2 z [A,,A,]2 A,, | [A,,D,]2 .D, (F,A,) z | z2 z z2 A,, | %258
 A,,2 .C, (E,G,) z | z2 z z2 [A,,,A,,] | [D,,D,]2 .[F,,F,] ([A,,A,][D,D])[K:treble]!p! d | %261
 _e2 .^f (a=c')[K:bass] [_E,,_E,] | [D,,D,]2 .[F,,F,] ([A,,A,][D,D])!p! .D, | %263
 _E,2 .^F, (A,=C)[K:treble] =c | =c2 .e (a=c')[K:bass] =E, | =F,2 A, =C=FC | %266
 D2[K:treble] A =c[cd][cd] | [=cd]3[K:bass] [G,,G,]3 | [G,,G,]3 [^G,,^G,]3 | z6 | z6 | z6 | z6 | %273
 .[D,F,].[D,G,].[D,A,] .[D,G,].[D,F,].[D,E,] | .D,.[D,E,].[D,F,] .[D,E,].[D,F,].[D,G,] | %275
 [F,,D,F,][G,,D,G,][A,,D,A,] [G,,D,G,][F,,D,F,][E,,D,E,] | %276
 [D,,D,][E,,D,E,][F,,D,F,] [E,,D,E,][F,,D,F,][G,,D,G,] | %277
 [F,,F,][A,,A,][F,,F,] [D,,D,][F,,F,][D,,D,] | %278
 [B,,,B,,][D,,D,][B,,,B,,] [^G,,,^G,,][B,,,B,,][G,,,G,,] | [A,,,A,,]6 | z6 | z6 | z6 | z6 | z6 | %285
 z6 | z6 | z6 | z6 | z6 | z6 | z2 z z2 E, | A,,2 .C, (E,G,) z | z2 z z2 G, | C,2 .E, (G,_B,) z | %295
 z2 .E, (G,_B,) z | z2 .G, (_B,_D) z | z2 .G, (_B,_D) z | (_B,_D) z (B,D) z |[K:C] z6 | z6 | z6 | %302
 z6 |[K:D] z6 | z6 | z6 |[K:Ab] z6 |[K:D] z [_A,,,_A,,][A,,,A,,] [A,,,A,,]2 z | %308
 z [_G,,_G,][G,,G,] [G,,G,]2 z | z [=F,,=F,][F,,F,] [F,,F,]2 z | z [E,,E,][E,,E,] [E,,E,]2 z | %311
 z [_E,,_E,][E,,E,] [E,,E,]2 z | z [D,,D,][D,,D,] [D,,D,]2 z | z [D,,D,][D,,D,] [D,,D,]2 z | %314
 z [^C,,^C,][C,,C,] [C,,C,]2 z | z [D,,D,][D,,D,] [D,,D,]2 z | %316
 z [^G,,,^G,,][G,,,G,,] [G,,,G,,]2 z | z [A,,,A,,][A,,,A,,] [A,,,A,,]2 z | z6 | %319
 z [A,,,A,,][A,,,A,,] [A,,,A,,]2 z | z6 | z6 | z6 | z6 | z6 | %325
 (.[D,F,A,D]2 .[D,F,A,D] .[D,F,A,D]2 .[D,F,A,D]) | %326
 (.[D,F,A,D]2 .[D,F,A,D] .[D,F,A,D]2 .[D,F,A,D]) | [D,,D,]2 z [D,,D,]2 z | [D,,D,]2 z [D,,D,]2 z | %329
 (.[D,F,A,D]2 .[D,F,A,D] .[D,F,A,D]2 .[D,F,A,D]) | %330
 (.[D,F,A,D]2 .[D,F,A,D] .[D,F,A,D]2 .[D,F,A,D]) | [D,,D,]2 z [D,,D,]2 z | [D,,D,]2 z [D,,D,]2 z | %333
 [D,F,A,]2 [D,F,A,] [D,F,A,]2 [D,F,A,] | [D,F,A,]2 [D,F,A,] [D,F,A,]2 [D,F,A,] | %335
 [D,G,B,]2 [D,G,B,] [D,G,B,]2 [D,G,B,] | [D,G,B,]2 [D,G,B,] [D,G,B,]2 [D,G,B,] | %337
 [D,G,A,]2 [D,G,A,] [D,G,A,]2 [D,G,A,] | [D,G,A,]2 [D,G,A,] [D,G,A,]2 [D,G,A,] | %339
 [D,,D,]2 .[F,,F,] ([A,,A,][D,D]).[D,,D,] | [A,DF]3 [A,DF]3 | %341
 [B,,,B,,]2 .[D,,D,] ([F,,F,][B,,B,]).[B,,,B,,] | [B,DF]3 [B,DF]3 | [G,,,G,,]2 z4 | [A,,,A,,]2 z4 | %345
 [D,,D,]2 .[F,,F,] ([A,,A,][D,D]).[D,D] | [D,D]3 [A,DF]3 | %347
 [B,,,B,,]2 .[D,,D,] ([F,,F,][B,,B,]).[B,,B,] | [B,,B,]3 [B,DF]3 | [G,,,G,,]2 z4 | [A,,,A,,]2 z4 | %351
 [D,,D,] [F,,,F,,]2 [G,,,G,,]2 [^G,,,^G,,]- | [G,,,G,,] [A,,,A,,]2 [_B,,,_B,,]2 [B,,,B,,] | %353
 [_B,,,_B,,]6 | [A,,A,]2 z [A,,A,]2 z | [D,,D,] [F,,,F,,]2 [G,,,G,,]2 [^G,,,^G,,]- | %356
 [G,,,G,,] [A,,,A,,]2 [_B,,,_B,,]2 [B,,,B,,] | [_B,,,_B,,]6 | [A,,A,]2 z [A,,A,] z [A,,A,] | %359
 [D,,D,]2 .[F,,F,] ([A,,A,][D,D]) [D,,D,] | [F,,F,]2 .[A,,A,] ([D,D][F,F]) [F,,F,] | %361
 [A,,A,]2 .[D,D] [F,F][A,A].[A,,A,] | [D,,D,]3 [D,,D,]3 | [D,,D,]3 [D,,D,]3 | [D,,D,]3 [D,,D,]3 | %365
 [D,,D,]3 [D,,D,]3 | [D,,D,]3 [D,,D,]3 | [D,,D,]2 z z2 z | z6 | z2 z z2 .[A,,,A,,] | %370
 .[D,,D,]2 z z2 z |] %371
V:5
 x | x6 | x6 | x6 | x6 | x6 | x6 | x6 | x6 | x6 | x6 | x6 | x6 | x6 | x6 | x6 | x6 | x6 | x6 | x6 | %20
 x6 | x6 | x6 | x6 | x6 | x6 | x6 | x6 | x6 | x6 | x6 | x6 | x6 | x6 | x6 | x6 | x6 | x6 | x6 | %39
 x6 | x6 | x6 | x6 | x6 | x6 | x6 | x6 | x6 | x6 | x6 | x6 | x6 | x6 | x6 | x6 | x6 | x6 | x6 | %58
 x6 | x6 | x6 | x6 | x6 | x6 | x6 | x6 | x6 | x6 | x6 | x6 | x6 | x6 | x6 | x6 | x6 | x6 | x6 | %77
 x6 | x6 | x6 | x6 | x6 | x6 | x6 | x6 | [A,C]6 | x6 | x6 | _B2 c eg z | x6 | x6 | x6 | %92
 [A,EG]2 z z2 x x x z | x6 | x6 | x6 | x6 | x6 | x6 | x6 | x6 | x6 | x6 | x6 | x6 | x6 | x6 | x6 | %108
 x6 | x6 | x6 | x6 | x6 | x6 | x6 | x6 | x6 | x [=FA][FA] A2 x | x [=F_B][FB] B2 x | x GG G2 x | %120
 x [EG]G G2 x | x [=FA]A A2 x | x [^FA]A A2 x | x6 | x6 | x6 | x6 | _B,3 =C3 | x6 | x6 | _B,6- | %131
 B,3 =C3 | x6 | x6 | x6 |[K:bass] x6 | x6 | x6 | x6 | x6 | x6 | x6 | x6 | x6 | x6 | x6 | x6 | %147
 _B,3 =C3 | x6 | x6 | x6 | x6 | x6 | x6 | x6 | x6 | x6 | x6 |[K:treble] x6 | x6 | x6 | x6 | x6 | %163
 x6 | x6 | x6 | x6 | x6 | x6 | x6 | x6 | x6 | x6 | x6 | x6 | x6 | x6 | x6 | x6 | x6 | x6 | x6 | %182
 x6 | x6 | x6 | x6 | x6 | x6 | x6 | x6 | x6 | x6 | x6 | x6 | x6 | x6 | x6 | x6 | x6 | x6 | x6 | %201
 x6 | x6 | x6 | x6 | x6 | x6 | x6 | x6 | x6 | x6 | x6 | x6 | x6 | x6 | x6 | x6 | x6 | x6 | x6 | %220
 x6 | x6 | x6 | x6 | x6 | x6 | x6 | x6 | x6 | x6 | x6 | x6 | x6 | x6 | x6 | x6 | x6 | x6 | x6 | %239
 x6 | x6 | x6 | x6 | x6 | x6 | x6 | x6 | x6 | x6 | x6 | x6 | x6 | x6 | x6 | x6 | x6 | x6 | x6 | %258
 x6 | x6 | x6 | x6 | x6 | x6 | x6 | x6 | x6 | x6 | x6 | x6 | x6 | x6 | x6 | x6 | x6 | x6 | x6 | %277
 x6 | x6 | x6 | x6 | x6 | x6 | x6 | x6 | x6 | x6 | x6 | x6 | x6 | x6 | x6 | x6 | x6 | x6 | x6 | %296
 x6 | x6 | x6 |[K:C] x6 | x6 | x6 | x6 |[K:D] x6 | x6 | x6 |[K:Ab] x6 |[K:D] x6 | x6 | x6 | x6 | %311
 x6 | x6 | x6 | x6 | x6 | x6 | x6 | x6 | x6 | x6 | x6 | x6 | x6 | x6 | x6 | x6 | x6 | x6 | x6 | %330
 x6 | x6 | x6 | x6 | x6 | x6 | x6 | x6 | x6 | x6 | x6 | x6 | x6 | x6 | x6 | x6 | x6 | x6 | x6 | %349
 x6 | x6 | x6 | x6 | x6 | x6 | x6 | x6 | x6 | x6 | x6 | x6 | x6 | x6 | x6 | x6 | x6 | x6 | x6 | %368
 x6 | x6 | x6 |] %371
V:6
 x | x6 | x6 | x6 | x6 | x6 | x6 | x6 | x6 | x6 | x6 | x6 | x6 | x6 | x6 | x6 | x6 | x6 | x6 | x6 | %20
 x6 | x6 | x6 | x6 | x6 | x6 | x6 | x6 | x6 | x6 | x6 | x6 | x6 | x6 | x6 | x6 | x6 | x6 | x6 | %39
 x6 | x6 | x6 | x6 | x6 | x6 | x6 | x6 | x6 | x6 | x6 | x6 | x6 | x6 | x6 | x6 | x6 | x6 | x6 | %58
 x6 | x6 | x6 | x6 | x6 | x6 | x6 | x6 | x6 | x6 | x6 | x6 | x6 | x6 | x6 | x6 | x6 | x6 | x6 | %77
 x6 | x6 | x6 | x6 | x6 | x6 | x6 | x6 | x6 | x6 | x6 | x6 | x6 | x6 | x6 | %92
 [A,,,A,,]2 z z2 x x x z | x6 | x6 | x6 | x6 | x6 | x6 | x6 | x6 | x6 | x6 | x6 | x6 | x6 | x6 | %107
 x6 | x6 | x6 | x6 | x6 | x6 | x6 | x6 | x6 | x6 | x6 | x6 | x6 | x6 | x6 | x6 | x6 | x6 | x6 | %126
 x6 | x6 | x6 | x6 | x6 | x6 | x6 | x6 | x6 | x6 | x6 | x6 | x6 | x6 | x6 | x6 | x6 | x6 | x6 | %145
 x6 | x6 | x6 | x6 | x6 | x6 | x6 | x6 | x6 | x6 | x6 | x6 | x6 | x6 | x6 | x6 | x6 | x6 | x6 | %164
 x6 | x6 | x6 | x6 | x6 | x6 | x6 | x6 | x6 | x6 | x6 | x6 | x6 | x6 | x6 | x6 | x6 | x6 | x6 | %183
 x6 | x6 | x6 | x6 | x6 | x6 | x6 | x6 | x6 | x6 | x6 | x6 | x6 | x6 | x6 | x6 | x6 | x6 | x6 | %202
 x6 | x6 | x6 | x6 | x6 | x6 | x6 | x6 | x6 | x6 | x6 | x6 | x6 | x6 | x6 | x6 | x6 | x6 | x6 | %221
 x6 | x6 | x6 | x6 | x6 | x6 | x6 | x6 | x6 | x6 | x6 | x6 | x6 | D,3 A,,3 | x6 | x6 | x6 | %238
 D,3 A,,3 | x6 | x6 | x6 | x6 | x6 | x6 | x6 | x6 | x6 | [D,,D,] x5 | x6 | x6 | x6 | x6 | x6 | x6 | %255
 x6 | x6 | x6 | x6 | x6 | x5[K:treble] x | x5[K:bass] x | x6 | x5[K:treble] x | x5[K:bass] x | x6 | %266
 x2[K:treble] x4 | x3[K:bass] x3 | x6 | x6 | x6 | x6 | x6 | x6 | x6 | x6 | x6 | x6 | x6 | x6 | x6 | %281
 x6 | x6 | x6 | x6 | x6 | x6 | x6 | x6 | x6 | x6 | x6 | x6 | x6 | x6 | x6 | x6 | x6 | x6 | %299
[K:C] x6 | x6 | x6 | x6 |[K:D] x6 | x6 | x6 |[K:Ab] x6 |[K:D] x6 | x6 | x6 | x6 | x6 | x6 | x6 | %314
 x6 | x6 | x6 | x6 | x6 | x6 | x6 | x6 | x6 | x6 | x6 | x6 | x6 | x6 | x6 | x6 | x6 | x6 | x6 | %333
 x6 | x6 | x6 | x6 | x6 | x6 | x6 | x6 | x6 | x6 | x6 | x6 | x6 | x6 | x6 | x6 | x6 | x6 | x6 | %352
 x6 | x6 | x6 | x6 | x6 | x6 | x6 | x6 | x6 | x6 | x6 | x6 | x6 | x6 | x6 | x6 | x6 | x6 | x6 |] %371

